X:20
T:Kitty's Gone A'Milking
R:reel
E:7
I:speed 350
M:C|
K:G
Bc|dG~G2 d2 Bc|dG ~G2 FABc|dG~G2 d2 eg|.fdcA {c}BG{F}GB|dG~G2 d2 Bc|dG ~G2 FABc|dG~G2 d2 eg|.fdcA{cGF}G2||
Bc|dg~g2 ag ~g2|dg~g2 d2 Bc|dg~g2 ag ~g2|dcAB {d}c2Bc|dg~g2 ag ~g2|dg~g2 d2 Bc|defg abag|.fdcA {cGF}G2||
